svgs/sharp-regular/dial-max.svg

<svg xmlns="http://www.w3.org/2000/svg" viewBox="0 0 576 512"><!--! Font Awesome Pro 6.6.0 by @fontawesome - https://fontawesome.com License - https://fontawesome.com/license (Commercial License) Copyright 2024 Fonticons, Inc. --><path d="M320 0L256 0l0 64 64 0 0-64zM128 64L64 64l0 64 64 0 0-64zm384 0l-64 0 0 64 64 0 0-64zm0 192l0 64 64 0 0-64-64 0zm0 192l-64 0 0 64 64 0 0-64zM64 448l0 64 64 0 0-64-64 0zM0 256l0 64 64 0 0-64L0 256zm271 49l77.4 77.4c-43.4 27.8-101.7 22.8-139.6-15.1c-43.7-43.7-43.7-114.7 0-158.4s114.7-43.7 158.4 0c37.9 37.9 43 96.2 15.1 139.6L305 271l-17-17L254.1 288l17 17zm130.1 96.2A160 160 0 1 0 174.9 174.9 160 160 0 1 0 401.1 401.1z"/></svg>

<svg xmlns="http://www.w3.org/2000/svg" viewBox="0 0 576 512"><!--! Font Awesome Pro 6.4.2 by @fontawesome - https://fontawesome.com License - https://fontawesome.com/license (Commercial License) Copyright 2023 Fonticons, Inc. --><path d="M320 0H256V64h64V0zM128 64H64v64h64V64zm384 0H448v64h64V64zm0 192v64h64V256H512zm0 192H448v64h64V448zM64 448v64h64V448H64zM0 256v64H64V256H0zm271 49l77.4 77.4c-43.4 27.8-101.7 22.8-139.6-15.1c-43.7-43.7-43.7-114.7 0-158.4s114.7-43.7 158.4 0c37.9 37.9 43 96.2 15.1 139.6L305 271l-17-17L254.1 288l17 17zm130.1 96.2A160 160 0 1 0 174.9 174.9 160 160 0 1 0 401.1 401.1z"/></svg>
